icon-themes/breeze_svg/cmd/sc_savebackground.svg

<svg xmlns="http://www.w3.org/2000/svg" viewBox="0 0 16 16">
  <path
     style="fill:#4d4d4d"
     d="M 2 2 L 2 13.28125 L 2 14 L 7 14 L 7 9.6875 L 6.3125 9 L 6.28125 9 L 3 12.28125 L 3 3 L 13 3 L 13 7 L 14 7 L 14 2 L 2 2 z M 6 4 C 4.8954305 4 4 4.8954305 4 6 C 4 7.1045695 4.8954305 8 6 8 C 7.1045695 8 8 7.1045695 8 6 C 8 4.8954305 7.1045695 4 6 4 z "
     />
  <path
     style="fill:#4d4d4d"
     d="m 8,8 v 6 h 6 V 9.5 L 12.5,8 Z m 1,1 h 1 v 1 h 2 V 9 l 1,1 v 3 H 9 Z"
     />
</svg>

<svg viewBox="0 0 16 16" xmlns="http://www.w3.org/2000/svg"><g fill="#4d4d4d"><path d="m2 2v11.28125.71875h5v-4.3125l-.6875-.6875h-.03125l-3.28125 3.28125v-9.28125h10v4h1v-5zm4 2c-1.1045695 0-2 .8954305-2 2s.8954305 2 2 2 2-.8954305 2-2-.8954305-2-2-2z"/><path d="m8 8v6h6v-4.5l-1.5-1.5zm1 1h1v1h2v-1l1 1v3h-4z"/></g></svg>
